X:171
T:Lobster (reel), The 
B:CRE2.147 (Gliomach)
F:file ID: cre.2/171lobst
N:"Christened" by Breathnach himself!
L:1/8
M:C
R:reel
Q:180
K:G
DEGB ABGB|ABGB ABGE|DEGB ABGA|BGdB ABGE|
DEGB ABG2|ABGB ABGE|DEGB ABGA|BGdB AGG2||
d2dc dGG2|dGG2 AGEG|d2dc dcdB|GABG AGEG|
d2dc dgge|d2ge dBGB|c3A B2BA|GABG AGEG||

%%%

